Newaita-dark/devices/48/network-cellular.svg

<svg height="48pt" viewBox="0 0 48 48" width="48pt" xmlns="http://www.w3.org/2000/svg" xmlns:xlink="http://www.w3.org/1999/xlink"><linearGradient id="a" gradientTransform="matrix(.0887489 0 0 .093759 1.155135 20.158177)" gradientUnits="userSpaceOnUse" x1="254" x2="254" y1="233.5" y2="254.66667"><stop offset="0" stop-opacity=".27451"/><stop offset="1" stop-opacity="0"/></linearGradient><linearGradient id="b"><stop offset="0" stop-opacity=".313725"/><stop offset=".222222" stop-opacity=".27451"/><stop offset="1" stop-opacity="0"/></linearGradient><radialGradient id="c" cx="450.90894" cy="189.57936" gradientTransform="matrix(.00000026 -.117199 -.210958 -.00000015 78.692112 95.393002)" gradientUnits="userSpaceOnUse" r="21.166656" xlink:href="#b"/><radialGradient id="d" cx="450.90894" cy="189.57936" gradientTransform="matrix(-.00000026 .117199 .210958 .00000015 -31.062565 -11.291218)" gradientUnits="userSpaceOnUse" r="21.166656" xlink:href="#b"/><radialGradient id="e" cx="450.90894" cy="189.57936" gradientTransform="matrix(-.00000026 -.117199 .210958 -.00000015 -31.062565 95.393002)" gradientUnits="userSpaceOnUse" r="21.166656" xlink:href="#b"/><radialGradient id="f" cx="450.90894" cy="189.57936" gradientTransform="matrix(.00000026 .117199 -.210958 .00000015 78.692109 -11.291219)" gradientUnits="userSpaceOnUse" r="21.166656" xlink:href="#b"/><linearGradient id="g" gradientUnits="userSpaceOnUse" x1="23.814786" x2="23.814786" y1="42.0509015" y2="4.34415668747"><stop offset="0" stop-color="#66bb6a"/><stop offset="1" stop-color="#81c784"/></linearGradient><linearGradient id="h" gradientUnits="userSpaceOnUse" x1="29.76852" x2="29.76852" y1="42.05096669922" y2="4.34417271465"><stop offset="0" stop-color="#424242"/><stop offset="1" stop-color="#616161"/></linearGradient><path d="m8.433594 42.050781h30.761718v1.984375h-30.761718zm0 0" fill="url(#a)"/><path d="m39.195312 42.050781h3.96875v-1.984375h-3.96875zm0 0" fill="url(#c)"/><path d="m8.433594 42.050781h-3.96875v1.984375h3.96875zm0 0" fill="url(#d)"/><path d="m8.433594 42.050781h-3.96875v-1.984375h3.96875zm0 0" fill="url(#e)"/><path d="m39.195312 42.050781h3.96875v1.984375h-3.96875zm0 0" fill="url(#f)"/><path d="m6.945312 4.34375h33.738282c1.097656 0 1.984375.890625 1.984375 1.984375v33.738281c0 1.097656-.886719 1.984375-1.984375 1.984375h-33.738282c-1.09375 0-1.984374-.886719-1.984374-1.984375v-33.738281c0-1.09375.890624-1.984375 1.984374-1.984375zm0 0" fill="url(#g)"/><path d="m6.945312 4.34375c-1.097656 0-1.984374.886719-1.984374 1.984375v.371094c0-1.097657.886718-1.984375 1.984374-1.984375h33.738282c1.097656 0 1.984375.886718 1.984375 1.984375v-.371094c0-1.097656-.886719-1.984375-1.984375-1.984375zm0 0" fill="#fff" fill-opacity=".392157"/><path d="m74.076259-168.671091h359.840637c11.707216 0 21.164646 9.499093 21.164646 21.164646v359.840637c0 11.707215-9.45743 21.164645-21.164646 21.164645h-359.840637c-11.665552 0-21.164645-9.45743-21.164645-21.164645v-359.840637c0-11.665553 9.499093-21.164646 21.164645-21.164646zm0 0" fill="none" stroke="#212121" stroke-linecap="round" stroke-linejoin="round" stroke-width="3" transform="matrix(.093759 0 0 .093759 0 20.158175)"/><path d="m15.425781 7.878906c-3.402343 3.40625-5.503906 8.117188-5.503906 13.335938 0 5.214844 2.101563 9.925781 5.503906 13.332031l2.105469-2.105469c-2.863281-2.871094-4.632812-6.835937-4.632812-11.226562 0-4.394532 1.769531-8.359375 4.632812-11.230469zm22.488281 4.214844-2.105468 2.105469c1.789062 1.792969 2.890625 4.269531 2.890625 7.015625 0 2.742187-1.101563 5.21875-2.890625 7.011718l2.105468 2.105469c2.328126-2.328125 3.761719-5.550781 3.761719-9.117187 0-3.570313-1.433593-6.792969-3.761719-9.121094zm-18.277343 0c-2.324219 2.328125-3.761719 5.550781-3.761719 9.121094 0 3.566406 1.4375 6.789062 3.761719 9.117187l2.109375-2.105469c-1.789063-1.792968-2.894532-4.269531-2.894532-7.011718 0-2.746094 1.105469-5.222656 2.894532-7.015625zm9.140625 3.164062c-3.300782 0-5.953125 2.65625-5.953125 5.957032 0 2.601562 1.652343 4.800781 3.96875 5.613281v15.222656h3.96875v-15.222656c2.316406-.8125 3.96875-3.011719 3.96875-5.613281 0-3.300782-2.65625-5.957032-5.953125-5.957032zm0 0" fill="url(#h)"/><g fill-opacity=".235294"><path d="m15.425781 7.878906c-3.402343 3.40625-5.503906 8.117188-5.503906 13.335938 0 .113281.003906.226562.003906.339844.089844-5.078126 2.171875-9.65625 5.5-12.988282l1.769531 1.769532c.109376-.121094.222657-.234376.335938-.351563zm22.488281 4.214844-2.105468 2.105469c.113281.113281.226562.230469.332031.351562l1.773437-1.773437c2.253907 2.257812 3.667969 5.347656 3.757813 8.777344.003906-.113282.003906-.226563.003906-.339844 0-3.570313-1.433593-6.792969-3.761719-9.121094zm-18.277343 0c-2.324219 2.328125-3.761719 5.550781-3.761719 9.121094 0 .113281.003906.226562.007812.339844.085938-3.429688 1.503907-6.519532 3.753907-8.777344l1.773437 1.773437c.109375-.121093.21875-.238281.335938-.351562zm9.140625 3.164062c-3.300782 0-5.953125 2.65625-5.953125 5.957032 0 .113281 0 .230468.007812.34375.175781-3.140625 2.761719-5.613282 5.945313-5.613282s5.765625 2.472657 5.941406 5.613282c.007812-.113282.011719-.230469.011719-.34375 0-3.300782-2.65625-5.957032-5.953125-5.957032zm-9.917969 6.296876c-.003906.117187-.007813.230468-.007813.34375 0 2.570312.96875 4.902343 2.558594 6.664062l.335938-.335938c-1.714844-1.71875-2.800782-4.0625-2.886719-6.671874zm19.832031 0c-.085937 2.609374-1.171875 4.953124-2.882812 6.671874l.332031.335938c1.589844-1.761719 2.558594-4.09375 2.558594-6.664062 0-.113282-.003907-.226563-.007813-.34375zm-25.789062 0c0 .117187-.003906.230468-.003906.34375 0 4.21875 1.628906 8.042968 4.296874 10.878906l.335938-.335938c-2.789062-2.792968-4.539062-6.628906-4.628906-10.886718zm0 0" fill="#fff"/><path d="m17.105469 10.394531c-2.613281 2.824219-4.207031 6.613281-4.207031 10.78125 0 .148438.003906.292969.007812.4375.113281-4.222656 1.855469-8.019531 4.625-10.796875zm19.121093 4.21875-.417968.417969c1.691406 1.699219 2.769531 4.011719 2.882812 6.582031.003906-.144531.007813-.289062.007813-.4375 0-2.519531-.933594-4.816406-2.472657-6.5625zm-14.902343 0c-1.539063 1.746094-2.472657 4.042969-2.472657 6.5625 0 .148438.003907.292969.011719.4375.109375-2.570312 1.1875-4.882812 2.882813-6.582031zm1.515625 7c-.011719.140625-.015625.285157-.015625.433594 0 2.601563 1.652343 4.800781 3.96875 5.617187v-.871093c-2.1875-.765625-3.78125-2.769531-3.953125-5.179688zm11.875 0c-.171875 2.410157-1.765625 4.414063-3.953125 5.179688v.871093c2.316406-.816406 3.96875-3.015624 3.96875-5.617187 0-.148437-.007813-.292969-.015625-.433594zm-24.785156 0c-.003907.144531-.007813.289063-.007813.433594 0 5.21875 2.101563 9.925781 5.503906 13.332031l2.105469-2.105468c-.144531-.144532-.285156-.292969-.425781-.441407l-1.679688 1.679688c-3.308593-3.3125-5.386719-7.855469-5.496093-12.898438zm5.953124 0c-.003906.140625-.007812.289063-.007812.433594 0 3.566406 1.4375 6.789063 3.761719 9.121094l2.109375-2.109375c-.144532-.144532-.285156-.292969-.421875-.445313l-1.6875 1.683594c-2.230469-2.234375-3.640625-5.289063-3.753907-8.683594zm25.785157 0c-.109375 3.394531-1.523438 6.449219-3.753907 8.683594l-1.6875-1.683594c-.132812.152344-.273437.300781-.417968.445313l2.105468 2.109375c2.328126-2.332031 3.761719-5.554688 3.761719-9.121094 0-.144531-.003906-.292969-.007812-.433594zm-14.875 20.402344v.035156h3.96875v-.035156zm0 0"/><path d="m6.945312 42.050781c-1.097656 0-1.984374-.886719-1.984374-1.984375v-.496094c0 1.097657.886718 1.984376 1.984374 1.984376h33.738282c1.097656 0 1.984375-.886719 1.984375-1.984376v.496094c0 1.097656-.886719 1.984375-1.984375 1.984375zm0 0"/></g><path d="m621.83039 317.607469c-137.152259 137.309724-221.868579 327.212852-221.868579 537.586465 0 210.216149 84.71632 400.119276 221.868579 537.429l84.873786-84.873786c-115.42205-115.73698-186.753822-275.564239-186.753822-452.555214 0-177.148439 71.331772-336.975698 186.753822-452.712679zm906.527615 169.905037-84.873785 84.873786c72.119098 72.276563 116.524307 172.109551 116.524307 282.807642 0 110.540627-44.405209 210.373614-116.524307 282.650178l84.873785 84.873785c93.849307-93.849306 151.639065-223.758162 151.639065-367.523963 0-143.923265-57.789758-273.832121-151.639065-367.681428zm-736.780044 0c-93.691841 93.849307-151.639064 223.758163-151.639064 367.681428 0 143.765801 57.947223 273.674657 151.639064 367.523963l85.031251-84.873785c-72.119098-72.276564-116.681772-172.109551-116.681772-282.650178 0-110.698091 44.562674-210.531079 116.681772-282.807642zm368.468755 127.546877c-133.058161 0-239.977086 107.07639-239.977086 240.134551 0 104.871877 66.607813 193.524829 159.984724 226.277607v613.642196h159.984724v-613.642196c93.376911-32.752778 159.984724-121.40573 159.984724-226.277607 0-133.058161-107.07639-240.134551-239.977086-240.134551zm0 0" fill="none" stroke="#212121" stroke-linecap="round" stroke-linejoin="round" stroke-width="11.338583" transform="scale(.0248071)"/></svg>

<?xml version="1.0" encoding="UTF-8"?>
<svg xmlns="http://www.w3.org/2000/svg" xmlns:xlink="http://www.w3.org/1999/xlink" width="48pt" height="48pt" viewBox="0 0 48 48" version="1.1">
<defs>
<linearGradient id="linear0" gradientUnits="userSpaceOnUse" x1="254" y1="233.5" x2="254" y2="254.66667" gradientTransform="matrix(0.0887489,0,0,0.093759,1.155135,20.158177)">
<stop offset="0" style="stop-color:rgb(0%,0%,0%);stop-opacity:0.27451;"/>
<stop offset="1" style="stop-color:rgb(0%,0%,0%);stop-opacity:0;"/>
</linearGradient>
<radialGradient id="radial0" gradientUnits="userSpaceOnUse" cx="450.90894" cy="189.57936" fx="450.90894" fy="189.57936" r="21.166656" gradientTransform="matrix(0.000000261256,-0.117199,-0.210958,-0.000000152308,78.692112,95.393002)">
<stop offset="0" style="stop-color:rgb(0%,0%,0%);stop-opacity:0.313725;"/>
<stop offset="0.222222" style="stop-color:rgb(0%,0%,0%);stop-opacity:0.27451;"/>
<stop offset="1" style="stop-color:rgb(0%,0%,0%);stop-opacity:0;"/>
</radialGradient>
<radialGradient id="radial1" gradientUnits="userSpaceOnUse" cx="450.90894" cy="189.57936" fx="450.90894" fy="189.57936" r="21.166656" gradientTransform="matrix(-0.000000261256,0.117199,0.210958,0.000000152308,-31.062565,-11.291218)">
<stop offset="0" style="stop-color:rgb(0%,0%,0%);stop-opacity:0.313725;"/>
<stop offset="0.222222" style="stop-color:rgb(0%,0%,0%);stop-opacity:0.27451;"/>
<stop offset="1" style="stop-color:rgb(0%,0%,0%);stop-opacity:0;"/>
</radialGradient>
<radialGradient id="radial2" gradientUnits="userSpaceOnUse" cx="450.90894" cy="189.57936" fx="450.90894" fy="189.57936" r="21.166656" gradientTransform="matrix(-0.000000261256,-0.117199,0.210958,-0.000000152308,-31.062565,95.393002)">
<stop offset="0" style="stop-color:rgb(0%,0%,0%);stop-opacity:0.313725;"/>
<stop offset="0.222222" style="stop-color:rgb(0%,0%,0%);stop-opacity:0.27451;"/>
<stop offset="1" style="stop-color:rgb(0%,0%,0%);stop-opacity:0;"/>
</radialGradient>
<radialGradient id="radial3" gradientUnits="userSpaceOnUse" cx="450.90894" cy="189.57936" fx="450.90894" fy="189.57936" r="21.166656" gradientTransform="matrix(0.000000261256,0.117199,-0.210958,0.000000152308,78.692109,-11.291219)">
<stop offset="0" style="stop-color:rgb(0%,0%,0%);stop-opacity:0.313725;"/>
<stop offset="0.222222" style="stop-color:rgb(0%,0%,0%);stop-opacity:0.27451;"/>
<stop offset="1" style="stop-color:rgb(0%,0%,0%);stop-opacity:0;"/>
</radialGradient>
<linearGradient id="linear1" gradientUnits="userSpaceOnUse" x1="254" y1="233.5" x2="254" y2="-168.66667" gradientTransform="matrix(0.093759,0,0,0.093759,0,20.158175)">
<stop offset="0" style="stop-color:rgb(40%,73.333333%,41.568627%);stop-opacity:1;"/>
<stop offset="1" style="stop-color:rgb(50.588235%,78.039216%,51.764706%);stop-opacity:1;"/>
</linearGradient>
<linearGradient id="linear2" gradientUnits="userSpaceOnUse" x1="1200" y1="1695.1182" x2="1200" y2="175.11812" gradientTransform="matrix(0.0248071,0,0,0.0248071,0,0)">
<stop offset="0" style="stop-color:rgb(25.882353%,25.882353%,25.882353%);stop-opacity:1;"/>
<stop offset="1" style="stop-color:rgb(38.039216%,38.039216%,38.039216%);stop-opacity:1;"/>
</linearGradient>
</defs>
<g id="surface1">
<path style=" stroke:none;fill-rule:nonzero;fill:url(#linear0);" d="M 8.433594 42.050781 L 39.195312 42.050781 L 39.195312 44.035156 L 8.433594 44.035156 Z M 8.433594 42.050781 "/>
<path style=" stroke:none;fill-rule:nonzero;fill:url(#radial0);" d="M 39.195312 42.050781 L 43.164062 42.050781 L 43.164062 40.066406 L 39.195312 40.066406 Z M 39.195312 42.050781 "/>
<path style=" stroke:none;fill-rule:nonzero;fill:url(#radial1);" d="M 8.433594 42.050781 L 4.464844 42.050781 L 4.464844 44.035156 L 8.433594 44.035156 Z M 8.433594 42.050781 "/>
<path style=" stroke:none;fill-rule:nonzero;fill:url(#radial2);" d="M 8.433594 42.050781 L 4.464844 42.050781 L 4.464844 40.066406 L 8.433594 40.066406 Z M 8.433594 42.050781 "/>
<path style=" stroke:none;fill-rule:nonzero;fill:url(#radial3);" d="M 39.195312 42.050781 L 43.164062 42.050781 L 43.164062 44.035156 L 39.195312 44.035156 Z M 39.195312 42.050781 "/>
<path style=" stroke:none;fill-rule:nonzero;fill:url(#linear1);" d="M 6.945312 4.34375 L 40.683594 4.34375 C 41.78125 4.34375 42.667969 5.234375 42.667969 6.328125 L 42.667969 40.066406 C 42.667969 41.164062 41.78125 42.050781 40.683594 42.050781 L 6.945312 42.050781 C 5.851562 42.050781 4.960938 41.164062 4.960938 40.066406 L 4.960938 6.328125 C 4.960938 5.234375 5.851562 4.34375 6.945312 4.34375 Z M 6.945312 4.34375 "/>
<path style=" stroke:none;fill-rule:nonzero;fill:rgb(100%,100%,100%);fill-opacity:0.392157;" d="M 6.945312 4.34375 C 5.847656 4.34375 4.960938 5.230469 4.960938 6.328125 L 4.960938 6.699219 C 4.960938 5.601562 5.847656 4.714844 6.945312 4.714844 L 40.683594 4.714844 C 41.78125 4.714844 42.667969 5.601562 42.667969 6.699219 L 42.667969 6.328125 C 42.667969 5.230469 41.78125 4.34375 40.683594 4.34375 Z M 6.945312 4.34375 "/>
<path style="fill:none;stroke-width:3;stroke-linecap:round;stroke-linejoin:round;stroke:rgb(12.941176%,12.941176%,12.941176%);stroke-opacity:1;stroke-miterlimit:4;" d="M 74.076259 -168.671091 L 433.916896 -168.671091 C 445.624112 -168.671091 455.081542 -159.171998 455.081542 -147.506445 L 455.081542 212.334192 C 455.081542 224.041407 445.624112 233.498837 433.916896 233.498837 L 74.076259 233.498837 C 62.410707 233.498837 52.911614 224.041407 52.911614 212.334192 L 52.911614 -147.506445 C 52.911614 -159.171998 62.410707 -168.671091 74.076259 -168.671091 Z M 74.076259 -168.671091 " transform="matrix(0.093759,0,0,0.093759,0,20.158175)"/>
<path style=" stroke:none;fill-rule:nonzero;fill:url(#linear2);" d="M 15.425781 7.878906 C 12.023438 11.285156 9.921875 15.996094 9.921875 21.214844 C 9.921875 26.429688 12.023438 31.140625 15.425781 34.546875 L 17.53125 32.441406 C 14.667969 29.570312 12.898438 25.605469 12.898438 21.214844 C 12.898438 16.820312 14.667969 12.855469 17.53125 9.984375 Z M 37.914062 12.09375 L 35.808594 14.199219 C 37.597656 15.992188 38.699219 18.46875 38.699219 21.214844 C 38.699219 23.957031 37.597656 26.433594 35.808594 28.226562 L 37.914062 30.332031 C 40.242188 28.003906 41.675781 24.78125 41.675781 21.214844 C 41.675781 17.644531 40.242188 14.421875 37.914062 12.09375 Z M 19.636719 12.09375 C 17.3125 14.421875 15.875 17.644531 15.875 21.214844 C 15.875 24.78125 17.3125 28.003906 19.636719 30.332031 L 21.746094 28.226562 C 19.957031 26.433594 18.851562 23.957031 18.851562 21.214844 C 18.851562 18.46875 19.957031 15.992188 21.746094 14.199219 Z M 28.777344 15.257812 C 25.476562 15.257812 22.824219 17.914062 22.824219 21.214844 C 22.824219 23.816406 24.476562 26.015625 26.792969 26.828125 L 26.792969 42.050781 L 30.761719 42.050781 L 30.761719 26.828125 C 33.078125 26.015625 34.730469 23.816406 34.730469 21.214844 C 34.730469 17.914062 32.074219 15.257812 28.777344 15.257812 Z M 28.777344 15.257812 "/>
<path style=" stroke:none;fill-rule:nonzero;fill:rgb(100%,100%,100%);fill-opacity:0.235294;" d="M 15.425781 7.878906 C 12.023438 11.285156 9.921875 15.996094 9.921875 21.214844 C 9.921875 21.328125 9.925781 21.441406 9.925781 21.554688 C 10.015625 16.476562 12.097656 11.898438 15.425781 8.566406 L 17.195312 10.335938 C 17.304688 10.214844 17.417969 10.101562 17.53125 9.984375 Z M 37.914062 12.09375 L 35.808594 14.199219 C 35.921875 14.3125 36.035156 14.429688 36.140625 14.550781 L 37.914062 12.777344 C 40.167969 15.035156 41.582031 18.125 41.671875 21.554688 C 41.675781 21.441406 41.675781 21.328125 41.675781 21.214844 C 41.675781 17.644531 40.242188 14.421875 37.914062 12.09375 Z M 19.636719 12.09375 C 17.3125 14.421875 15.875 17.644531 15.875 21.214844 C 15.875 21.328125 15.878906 21.441406 15.882812 21.554688 C 15.96875 18.125 17.386719 15.035156 19.636719 12.777344 L 21.410156 14.550781 C 21.519531 14.429688 21.628906 14.3125 21.746094 14.199219 Z M 28.777344 15.257812 C 25.476562 15.257812 22.824219 17.914062 22.824219 21.214844 C 22.824219 21.328125 22.824219 21.445312 22.832031 21.558594 C 23.007812 18.417969 25.59375 15.945312 28.777344 15.945312 C 31.960938 15.945312 34.542969 18.417969 34.71875 21.558594 C 34.726562 21.445312 34.730469 21.328125 34.730469 21.214844 C 34.730469 17.914062 32.074219 15.257812 28.777344 15.257812 Z M 18.859375 21.554688 C 18.855469 21.671875 18.851562 21.785156 18.851562 21.898438 C 18.851562 24.46875 19.820312 26.800781 21.410156 28.5625 L 21.746094 28.226562 C 20.03125 26.507812 18.945312 24.164062 18.859375 21.554688 Z M 38.691406 21.554688 C 38.605469 24.164062 37.519531 26.507812 35.808594 28.226562 L 36.140625 28.5625 C 37.730469 26.800781 38.699219 24.46875 38.699219 21.898438 C 38.699219 21.785156 38.695312 21.671875 38.691406 21.554688 Z M 12.902344 21.554688 C 12.902344 21.671875 12.898438 21.785156 12.898438 21.898438 C 12.898438 26.117188 14.527344 29.941406 17.195312 32.777344 L 17.53125 32.441406 C 14.742188 29.648438 12.992188 25.8125 12.902344 21.554688 Z M 12.902344 21.554688 "/>
<path style=" stroke:none;fill-rule:nonzero;fill:rgb(0%,0%,0%);fill-opacity:0.235294;" d="M 17.105469 10.394531 C 14.492188 13.21875 12.898438 17.007812 12.898438 21.175781 C 12.898438 21.324219 12.902344 21.46875 12.90625 21.613281 C 13.019531 17.390625 14.761719 13.59375 17.53125 10.816406 Z M 36.226562 14.613281 L 35.808594 15.03125 C 37.5 16.730469 38.578125 19.042969 38.691406 21.613281 C 38.695312 21.46875 38.699219 21.324219 38.699219 21.175781 C 38.699219 18.65625 37.765625 16.359375 36.226562 14.613281 Z M 21.324219 14.613281 C 19.785156 16.359375 18.851562 18.65625 18.851562 21.175781 C 18.851562 21.324219 18.855469 21.46875 18.863281 21.613281 C 18.972656 19.042969 20.050781 16.730469 21.746094 15.03125 Z M 22.839844 21.613281 C 22.828125 21.753906 22.824219 21.898438 22.824219 22.046875 C 22.824219 24.648438 24.476562 26.847656 26.792969 27.664062 L 26.792969 26.792969 C 24.605469 26.027344 23.011719 24.023438 22.839844 21.613281 Z M 34.714844 21.613281 C 34.542969 24.023438 32.949219 26.027344 30.761719 26.792969 L 30.761719 27.664062 C 33.078125 26.847656 34.730469 24.648438 34.730469 22.046875 C 34.730469 21.898438 34.722656 21.753906 34.714844 21.613281 Z M 9.929688 21.613281 C 9.925781 21.757812 9.921875 21.902344 9.921875 22.046875 C 9.921875 27.265625 12.023438 31.972656 15.425781 35.378906 L 17.53125 33.273438 C 17.386719 33.128906 17.246094 32.980469 17.105469 32.832031 L 15.425781 34.511719 C 12.117188 31.199219 10.039062 26.65625 9.929688 21.613281 Z M 15.882812 21.613281 C 15.878906 21.753906 15.875 21.902344 15.875 22.046875 C 15.875 25.613281 17.3125 28.835938 19.636719 31.167969 L 21.746094 29.058594 C 21.601562 28.914062 21.460938 28.765625 21.324219 28.613281 L 19.636719 30.296875 C 17.40625 28.0625 15.996094 25.007812 15.882812 21.613281 Z M 41.667969 21.613281 C 41.558594 25.007812 40.144531 28.0625 37.914062 30.296875 L 36.226562 28.613281 C 36.09375 28.765625 35.953125 28.914062 35.808594 29.058594 L 37.914062 31.167969 C 40.242188 28.835938 41.675781 25.613281 41.675781 22.046875 C 41.675781 21.902344 41.671875 21.753906 41.667969 21.613281 Z M 26.792969 42.015625 L 26.792969 42.050781 L 30.761719 42.050781 L 30.761719 42.015625 Z M 26.792969 42.015625 "/>
<path style=" stroke:none;fill-rule:nonzero;fill:rgb(0%,0%,0%);fill-opacity:0.235294;" d="M 6.945312 42.050781 C 5.847656 42.050781 4.960938 41.164062 4.960938 40.066406 L 4.960938 39.570312 C 4.960938 40.667969 5.847656 41.554688 6.945312 41.554688 L 40.683594 41.554688 C 41.78125 41.554688 42.667969 40.667969 42.667969 39.570312 L 42.667969 40.066406 C 42.667969 41.164062 41.78125 42.050781 40.683594 42.050781 Z M 6.945312 42.050781 "/>
<path style="fill:none;stroke-width:11.338583;stroke-linecap:round;stroke-linejoin:round;stroke:rgb(12.941176%,12.941176%,12.941176%);stroke-opacity:1;stroke-miterlimit:4;" d="M 621.83039 317.607469 C 484.678131 454.917193 399.961811 644.820321 399.961811 855.193934 C 399.961811 1065.410083 484.678131 1255.31321 621.83039 1392.622934 L 706.704176 1307.749148 C 591.282126 1192.012168 519.950354 1032.184909 519.950354 855.193934 C 519.950354 678.045495 591.282126 518.218236 706.704176 402.481255 Z M 1528.358005 487.512506 L 1443.48422 572.386292 C 1515.603318 644.662855 1560.008527 744.495843 1560.008527 855.193934 C 1560.008527 965.734561 1515.603318 1065.567548 1443.48422 1137.844112 L 1528.358005 1222.717897 C 1622.207312 1128.868591 1679.99707 998.959735 1679.99707 855.193934 C 1679.99707 711.270669 1622.207312 581.361813 1528.358005 487.512506 Z M 791.577961 487.512506 C 697.88612 581.361813 639.938897 711.270669 639.938897 855.193934 C 639.938897 998.959735 697.88612 1128.868591 791.577961 1222.717897 L 876.609212 1137.844112 C 804.490114 1065.567548 759.92744 965.734561 759.92744 855.193934 C 759.92744 744.495843 804.490114 644.662855 876.609212 572.386292 Z M 1160.046716 615.059383 C 1026.988555 615.059383 920.06963 722.135773 920.06963 855.193934 C 920.06963 960.065811 986.677443 1048.718763 1080.054354 1081.471541 L 1080.054354 1695.113737 L 1240.039078 1695.113737 L 1240.039078 1081.471541 C 1333.415989 1048.718763 1400.023802 960.065811 1400.023802 855.193934 C 1400.023802 722.135773 1292.947412 615.059383 1160.046716 615.059383 Z M 1160.046716 615.059383 " transform="matrix(0.0248071,0,0,0.0248071,0,0)"/>
</g>
</svg>
